X: 0
T: The Scarlet Regiment  v.1
P: piffero primo a0674
O: Bill Krug
F: http://ancients.sudburymuster.org/mus/med/pdf/scarletdC0.pdf
Z: 2020 John Chambers <jc:trillian.mit.edu>
M: 3/4
L: 1/8
K: D
A>A |\
d3 c/d/ e>c | d2 A2 dc | B2 gf ed | Tf2 ez A>A |\
d3 c/d/ e>f | g2 B2 fe | dc BA f>e | e2 dz :|
|: A>A |\
e3 d/e/ fd | e2 A2 de | fe/f/ gf ed | Tf2 ez A>A |\
d3 c/d/ ef | g2 B2 ef | dc BA f>e | e2 dz :|


